X: 083
T: Lochail's away to France
R: strathspey
M: C|
L: 1/8
Z: 2010 John Chambers <jc:trillian.mit.edu>
B: Abraham Mackintosh "A Collection of Strathspeys, Reels, Jigs &c.", Newcastle, after 1797, p.8
F: http://imslp.info/files/imglnks/usimg/a/a8/IMSLP80796-PMLP164326-Abraham_Mackintosh_coll.pdf
K: Am
V: 1
a | eA A/A/A e2dg | BG G/G/G Bddg | eA A/A/A e2dg | BAA/A/A aeea |
  | eA A/A/A e2dg | BG G/G/G Bddg | eA A/A/A e2dg | a/g/f/e/ gB A/A/AA |]
g | dega g/a/b ab | gd d/d/d gddg | dega g/a/b ab | ge e/e/e geeg |
  | dega bgab | gddB dega | bgab gdeg | BA A/A/A add |]
V: 2 clef=bass middle=d
z | a2a2 a2b2 | g2g2 g2g2 | a2a2 c'2b2 | a2a2 a2a2 |
  | a2a2 c'2b2 | g2g2 g2g2 | a2a2 c'2b2 | g2ge a2A |]
z | G2B2 G2c2 | B2G2 B2B2 | G2B2 G2d2 | e2e2 c2c2 |
  | B2B2 G2c2 | B2B2 G2B2 | A2c2 B2c2 | A2A2 A2A |]

%%sep 2 1 500

